X:0929
M:C
L:1/8
Q:1/4=100
K:G
g2|ed`ef g3  b |a>g``````ab   e2 dB|d(e/f/) g>a g>a (g/a/).g/.f/ |e>^d e(f/g/) e2
g2|e>dBd g2 B<b|g<e``````d>B  A2 GE|DEGA        B2 (.g/.e/.d/.c/)|B2   A2      G2|]

